X:0415
M:2/4
L:1/8
Q:1/2=72
K:G
c| Bdge   | fddc   | Bdge      | f2(de/f/)|\
  (gf)(ed)|(ed)(cB)| cd (ef/g/)|Td2 B2    |
  (GB).B.B|(cB)(AG)|(GB).d.d   |Td2 z      \

